X: 22132
T: Kuortaneen Polkka
R: polka
M: 2/4
K: Bminor
|:"Bmin"FF/F/ B/F/B/d/|ff/f/ "Emin"ed|"F"cf/g/ f/g/f/e/|dc "Bmin"Bd/B/|
"Bmin"FF/F/ B/F/B/d/|ff/f/ "Emin"ed|"F"cf/g/ f/g/f/e/|dc "Bmin"B2:|
|:"Bmin"ff/f/ d/f/d/f/|bb b/a/g/f/|"A"ee/e/ c/e/c/e/|aa a/g/f/e/|
"Bmin"dd/d/ B/d/B/d/|ff/f/ "Emin"ed/d/|"F"cg f/g/f/e/|dc "Bmin"B2:|
|:"Bmin"bf/f/ bf/f/|dB/B/ dB|"A"cA/A/ ce|"Bmin"dB/B/ df|
"Bmin"bf/f/ bf/f/|dB/B/ dB|"A"cA/A/ ce|"Bmin"dB B2:|
|:"Bmin"f/d/f/a/ gf|"Emin"ec/c/ c/d/c/d/|"F"e/c/e/g/ fe|"Bmin"dB B/d/B/d/|
"Bmin"f/d/f/a/ gf|"Emin"ec/c/ c/d/c/d/|"F"e/c/e/g/ fe|"Bmin"dB B2:|

